X:172
T:Waterloo Dance
O:No 172 Willaim Clarke of Feltwell
M:2/4
L:1/16
N:in m.s. B4 is |d4d2c2d2| and B8 is |A4A4|
K:D
AG|F2dB A2fe|d2d2 d2cd|e2e2 dcBA|dcde f2AG|F2dB A2fe|d2d2 d2c|de2e2 dcBA|d2f2d2||cd|e2ec a2ag|e2ec A2BA|^GABc dfed|d4 d2cd|e2ec a2ag|e2ec A2Bc|dcBA ^GABG|A4A2||fg|a6f2|b2a2g2f2|e2e2 edef|d2e2f2g2|a6f2|b2a2g2f2|e2e2 edef|d2f2d2||

